X: 23975
T: Lockdown And Ground Elder
R: jig
M: 6/8
K: Gmajor
d2|:B2c FGA|G2D B,DG|E2C CEG|BcA d^cd|
B2c FGA|G2D B,DG|E2C CEG|1 FGA G2d:|2 FGA G2g||
|:e2c Gce|d2B BAG|FGA cAF|G2g bag|
e2c Gce|d2B BAG|FGA cAF|1 FGA G2g:|2 FGA def||
|:ggg bbb|fff a3|e2c A2G|FGA def|
ggg bbb|fff a3|ecA cAG|1 FGA def:|2 FGA G2d||

